OJJO/img/footer/footer-etsy.svg

<svg width="16" height="16" viewBox="0 0 16 16" fill="none" xmlns="http://www.w3.org/2000/svg">
<path d="M5.7093 1.63C5.7093 1.41333 5.7313 1.28333 6.10264 1.28333H11.0793C11.946 1.28333 12.426 2.02333 12.7726 3.412L13.0526 4.52267H13.8993C14.0526 1.37067 14.186 0 14.186 0C14.186 0 12.0553 0.24 10.7926 0.24H4.42664L1.0173 0.130667V1.044L2.1673 1.26133C2.97397 1.42133 3.1673 1.592 3.23397 2.332C3.23397 2.332 3.3073 4.512 3.3073 8.092C3.3073 11.682 3.2473 13.832 3.2473 13.832C3.2473 14.4807 2.9873 14.7207 2.1873 14.8807L1.0393 15.1007V16L4.4593 15.89H10.1593C11.4493 15.89 14.4193 16 14.4193 16C14.4893 15.22 14.9193 11.68 14.9893 11.2907H14.1893L13.3333 13.2307C12.6633 14.7507 11.6826 14.8607 10.5933 14.8607H7.32264C6.23597 14.8607 5.71264 14.434 5.71264 13.494V8.53333C5.71264 8.53333 8.12597 8.53333 8.90597 8.59733C9.51397 8.64 9.8813 8.814 10.0793 9.66267L10.3393 10.7927H11.2793L11.2193 7.94067L11.3473 5.07067H10.42L10.12 6.33067C9.9313 7.16 9.79997 7.31067 8.95064 7.39733C7.83997 7.51067 5.74064 7.49067 5.74064 7.49067V1.63333H5.7073L5.7093 1.63Z" fill="#333333"/>
</svg>

<svg width="16" height="16" fill="none" xmlns="http://www.w3.org/2000/svg"><path d="M5.71 1.63c0-.217.021-.347.393-.347h4.976c.867 0 1.347.74 1.694 2.129l.28 1.11h.846c.154-3.151.287-4.522.287-4.522s-2.13.24-3.393.24H4.427L1.017.13v.914l1.15.217c.807.16 1 .331 1.067 1.071 0 0 .073 2.18.073 5.76 0 3.59-.06 5.74-.06 5.74 0 .649-.26.889-1.06 1.049l-1.148.22V16l3.42-.11h5.7c1.29 0 4.26.11 4.26.11.07-.78.5-4.32.57-4.71h-.8l-.856 1.94c-.67 1.52-1.65 1.63-2.74 1.63h-3.27c-1.087 0-1.61-.426-1.61-1.366v-4.96s2.413 0 3.193.063c.608.043.975.217 1.173 1.066l.26 1.13h.94l-.06-2.852.128-2.87h-.927l-.3 1.26c-.189.829-.32.98-1.17 1.066-1.11.114-3.21.094-3.21.094V1.633h-.033l.002-.003z" fill="#333"/></svg>
